X: 310
T: Hangul (Moldavian Dance)
R: hangul
O: Moldavia
Q: 1/4=112
B: German Goldenshteyn "Shpilt klezmorimlach klingen zoln di gesalach" New York 2003 v.3 #10
Z: 2012 John Chambers <jc:trillian.mit.edu>
M: 2/4
L: 1/16
K: G
|:\
D2G2 A2B2 | (dc)(cB) (BA)(AG) |\
(dc)(cB) (BA)(AG) | (Ac)B2- BFGE |\
D2G2 A2B2 | (dc)(cB) (BA)(AG) |
(dc)(cB) (BA)(AG) |[1 (AB)G2- G2G2 :|[2 G4 z2(Bd) |:\
(dc)(cB) (BA)(A^G) | (^GA)A2 A3d | (dc)(cB) (BA)(A^G) |
(Ac)B2 z2(^cd) | (dc)(cB) (BA)(A^G) |\
(^GA)A2 Te3d | (dc)(cB) (BA)(AG) |\
[1 (AB)G2 z2(Bd) :|[2 G2d2 e2f2 |]
(^fa) g6- | g8- | g8- | g4 z4 |:\
(3g2f2e2 (3f2g2a2 | (3g2f2e2 d2(^cd) |\
(dc)(cB) (BA)(AG) | (Ac)B2- B2d2 |
(3g2f2e2 (3f2g2a2 | (3g2f2e2 d2(Bd) |\
(dc)(cB) (BA)(AG) |[1 (AB)G2 z2d2 :|[2 G2D2 G2B2 |]
|: (dc)(cB) (BA)(A^G) | (^GA)A2 TA3d |\
(dc)(cB) (BA)(AG) | (Ac)B2- BDGB |\
(dc)cB (dc)cB |
(AB)cd Te3d |\
(dc)(cB) (BA)(AG) |[1 G2z2 zDGB :|\
[2 G2z2 zFGE |["Fine" G2d2 g2z2 |]
